X:1
T:Title
%%score { ( 1 3 ) | ( 2 4 ) }
L:1/8
M:4/4
K:Ab
V:1 treble nm="Grand Piano"
V:3 treble 
V:2 bass 
V:4 bass 
V:1
 z4 z[Q:1/4=100] [CA][CA][DB] | [Ec]2 [Ec]2 [Ec]2 [DB]2 | [A,CA]6 G>A | B6 z2 | %4
[M:5/8] [Ec]-[Ec]- [Ec]3 |[M:3/8] [CE][CE][CA] |[M:4/4] [Ec]2 [Ec]2 [Ec]2 [DB]2 | [A,CA]6 c>c | %8
 B6 z2 |[M:3/4] [Ge]6 |[M:1/4] E2 |[M:4/4] E2 d2 d3 e | d2 c2 c3 E | E2 B2 B3 c | B2 A2 A3 [EG] | %15
 [DF]2 [FA]2 [Fd]3 [DF] | [CE]2 [CA]2 [Ec]2 z2 | %17
[M:9/8] z2 [CA]- [CA]/[CA]/ [B,G]2- [B,G][EGc]>[DGB] |[M:5/8] [A,CEA]- [A,CEA]3 z |] %19
V:2
 z4 z [A,,E,][A,,E,][A,,E,] | [A,,A,]2 [A,,A,]2 [E,G,]2 [E,G,]2 | A,,6[K:treble] E>F | %3
 G6[K:bass] z2 |[M:5/8] [A,,A,]-[A,,A,]- [A,,A,]3 |[M:3/8] [A,,A,][A,,A,][A,,A,] | %6
[M:4/4] [A,,A,]2 [A,,A,]2 [E,G,]2 [E,G,]2 | A,,6[K:treble] A>A | G6[K:bass] z2 |[M:3/4] [E,B,]6 | %10
[M:1/4] [E,G,]2 |[M:4/4] [E,G,]2 [E,B,E]2 [E,B,E]3 [E,CE] | [E,B,E]2 [A,E]2 [A,E]3 [E,G,] | %13
 [E,G,]2 [E,DE]2 [E,DE]3 [E,E] | [E,DE]2 [A,CE]2 [A,CE]3 [C,A,] | [D,A,]2 [D,A,]2 [D,A,]3 [D,A,] | %16
 [A,,A,]2 [A,,A,]2 [A,,A,]2[K:treble] c>d |[M:9/8] e6- e[K:bass] z z |[M:5/8] A,,- A,,3 z |] %19
V:3
 x8 | x8 | x8 | z2 D>D D2 [A,EA]>[EB] |[M:5/8] x5 |[M:3/8] x3 |[M:4/4] x8 | x8 | %8
 z2 E>E E2 [Ac]>[A=d] |[M:3/4] x6 |[M:1/4] x2 |[M:4/4] x8 | x8 | x8 | x8 | x8 | x8 |[M:9/8] x9 | %18
[M:5/8] x5 |] %19
V:4
 x8 | x8 | x6[K:treble] x2 | z2[K:bass] E,>E, E,>D, C,>[B,,G,] |[M:5/8] x5 |[M:3/8] x3 | %6
[M:4/4] x8 | x6[K:treble] x2 | z2[K:bass] E,>G, B,2 [B,,B,]>[B,,B,] |[M:3/4] x6 |[M:1/4] x2 | %11
[M:4/4] x8 | x8 | x8 | x8 | x8 | x6[K:treble] x2 |[M:9/8] z2 A,- A,/A,/ E,2- E,[K:bass]E,>E, | %18
[M:5/8] x5 |] %19

